X: 1
T: I Heard the Bells on Christmas Day
C: words: Henry Longfellow
C: music: Johnny Marks
M: C
L: 1/4
K: F
C \
| "F"A>G "F"FE | "Bb"DG "C7"EC | "Dm"F>E DC | "E7"=B,E "Am"CC |
| "Gm"B>A "C7"GC | "Am"c>B "D7"AD | "Gm"dc "Dm"BA |1 "Am"A>G "C7"G :|2 "C7"G>F "F"F |]
